X: 1
T: Bonaparte Crossing The Rhine
R: Hornpipe
M: 4/4
L: 1/8
K: Ador
|: EG | A2 AB AGEG | cdec d2 eg | aged cded | cAGE G2 cB |
A2 AB AGEG | cdec d2 eg | aged cABG | A2 A2 A2 :|
|: eg | aged cdeg | agec d2 eg | aged cded | cAGE G2 cB |
A2 AB AGEG | cdec d2 eg | aged cABG | A2 A2 A2 :|
